X: 3
T: Donald MacLean's Farewell To Oban
Z: ceolachan
S: https://thesession.org/tunes/4806#setting21718
R: barndance
M: 4/4
L: 1/8
K: Amaj
|: AB |c2 BA e2 fe | ceAB c2 a2 | feaf efAc | ecBA B2AB |
c2 BA e2 fe | ceAB c2 a2 | feaf efAB | c2 A2 A2 :|
|: cd |e2 ee e2 fg | a2 fg a2af | ecaf efAc | ecBA B2 cd |
e2 ee e2 fg | a2 fg a2af | ecaf efAB | c2 A2 A2 :|
|: AB |cAcd eAde | fAeA cAfg | aAdc fAdA | dAcA BAAB |
cAcd eAde | fAeA cAfg | aAaf efAB | c2 A2 A2 :|
|: e2 |e2 e2 eccc | f2 f2 fddd | e2 e2 ecce |
[1 dcBA B2 cd | e2 e2 eccc | f2 f2 fddd | e2 ca eaAB | c2A2 A2 :|
[2 dcBA B2 AB | (3cde (3def eccd | dcBA c2 a2 | feaf efAB | c2 A2 A2 |]
